svgs/regular/square-virus.svg

<svg xmlns="http://www.w3.org/2000/svg" viewBox="0 0 448 512"><!--! Font Awesome Pro 6.4.2 by @fontawesome - https://fontawesome.com License - https://fontawesome.com/license (Commercial License) Copyright 2023 Fonticons, Inc. --><path d="M64 80c-8.8 0-16 7.2-16 16V416c0 8.8 7.2 16 16 16H384c8.8 0 16-7.2 16-16V96c0-8.8-7.2-16-16-16H64zM0 96C0 60.7 28.7 32 64 32H384c35.3 0 64 28.7 64 64V416c0 35.3-28.7 64-64 64H64c-35.3 0-64-28.7-64-64V96zm224 13.6c13.3 0 24 10.7 24 24c0 23.8 28.8 35.7 45.6 18.9c9.4-9.4 24.6-9.4 33.9 0s9.4 24.6 0 33.9c-16.8 16.8-4.9 45.6 18.9 45.6c13.3 0 24 10.7 24 24s-10.7 24-24 24c-23.8 0-35.7 28.8-18.9 45.6c9.4 9.4 9.4 24.6 0 33.9s-24.6 9.4-33.9 0c-16.8-16.8-45.6-4.9-45.6 18.9c0 13.3-10.7 24-24 24s-24-10.7-24-24c0-23.8-28.8-35.7-45.6-18.9c-9.4 9.4-24.6 9.4-33.9 0s-9.4-24.6 0-33.9c16.8-16.8 4.9-45.6-18.9-45.6c-13.3 0-24-10.7-24-24s10.7-24 24-24c23.8 0 35.7-28.8 18.9-45.6c-9.4-9.4-9.4-24.6 0-33.9s24.6-9.4 33.9 0c16.8 16.8 45.6 4.9 45.6-18.9c0-13.3 10.7-24 24-24zM192 256a32 32 0 1 0 0-64 32 32 0 1 0 0 64zm88 32a24 24 0 1 0 -48 0 24 24 0 1 0 48 0z"/></svg>

<svg xmlns="http://www.w3.org/2000/svg" viewBox="0 0 448 512"><!--! Font Awesome Pro 6.1.1 by @fontawesome - https://fontawesome.com License - https://fontawesome.com/license (Commercial License) Copyright 2022 Fonticons, Inc. --><path d="M224 109.6C237.3 109.6 248 120.3 248 133.6C248 157.4 276.8 169.3 293.6 152.5C302.1 143.1 318.2 143.1 327.5 152.5C336.9 161.8 336.9 177 327.5 186.4C310.7 203.2 322.6 231.1 346.4 231.1C359.7 231.1 370.4 242.7 370.4 255.1C370.4 269.3 359.7 279.1 346.4 279.1C322.6 279.1 310.7 308.8 327.5 325.6C336.9 334.1 336.9 350.2 327.5 359.5C318.2 368.9 302.1 368.9 293.6 359.5C276.8 342.7 248 354.6 248 378.4C248 391.7 237.3 402.4 224 402.4C210.7 402.4 200 391.7 200 378.4C200 354.6 171.2 342.7 154.4 359.5C145 368.9 129.8 368.9 120.5 359.5C111.1 350.2 111.1 334.1 120.5 325.6C137.3 308.8 125.4 279.1 101.6 279.1C88.32 279.1 77.58 269.3 77.58 255.1C77.58 242.7 88.32 231.1 101.6 231.1C125.4 231.1 137.3 203.2 120.5 186.4C111.1 177 111.1 161.8 120.5 152.5C129.8 143.1 145 143.1 154.4 152.5C171.2 169.3 200 157.4 200 133.6C200 120.3 210.7 109.6 224 109.6V109.6zM192 256C209.7 256 224 241.7 224 224C224 206.3 209.7 192 192 192C174.3 192 160 206.3 160 224C160 241.7 174.3 256 192 256zM256 264C242.7 264 232 274.7 232 288C232 301.3 242.7 312 256 312C269.3 312 280 301.3 280 288C280 274.7 269.3 264 256 264zM0 96C0 60.65 28.65 32 64 32H384C419.3 32 448 60.65 448 96V416C448 451.3 419.3 480 384 480H64C28.65 480 0 451.3 0 416V96zM48 96V416C48 424.8 55.16 432 64 432H384C392.8 432 400 424.8 400 416V96C400 87.16 392.8 80 384 80H64C55.16 80 48 87.16 48 96z"/></svg>
